X: 37878
T: Sound Of Wine Gums, The
R: jig
M: 6/8
K: Eminor
|:EFG B2B|edc B2G|FGA B2B|FGA B2F|EFG B2B|
[1 edc B3|ABA GAG|F3 F2F:|2 edc BAF|G2E B,CD|E3 E3||
|:FEF B2B|GFG B2B|ABA AGA|edc BAG|FEF B2B|
[1 GFG B3|ABA GAG|F3 F3:|2 GFG BAF|G2E B,CD|E3 E3||
|:F3 FEF|G3 GAB|ABA AGA|edc BAG|
F3 FEF|G3 GAB|ABA GAG|1 F3 F2E:|2 F3 F2F||

